X:20
T:Hpps simple chords 24
M:3/4
L:1/8
K:A
c>d [e2A,2C2E2] e2 | c2 c>d [e2A,2C2E2] | e2 c2 B>c | [d2E,2G,2B,2D2] d2 B2 | B>c [d2E,2G,2B,2D2] d2 |
B2 c>B [A2A,2C2E2] | A2 a2>a2 | [g2D,2F,2A,2] f2 e2 | d>c [f2D,2F,2A,2] d>B |
A2 G>A [B4E,4G,4B,4D4] | A2 c>d | [e2A,2C2E2] e2 c2 | c>d [e2A,2C2E2] e2 |
c2 B>c [d2E,2G,2B,2D2] | d2 B2 B>c | [d2E,2G,2B,2D2] d2 B2 | c>B [A2A,2C2E2] A2 |
a2>a2 [g2D,2F,2A,2] | f2 e2 d>c | [f2D,2F,2A,2] d>B A2 | G>A [B4E,4G,4B,4D4] |
A2 |


